goldran-beta/assets/lut_64-6FLBKT7a.3dl
# Created with LUTCalc v4.06 by Ben Turley February 2024 #
# IDENTIFICATION: LUTCalc - 3DLUT
# CREATOR: LUTCalc v4.06
# USER: LUTCalc
# DATA: 2024-10-03T08:23:58 #
# NUMBER OF COLUMNS: 3
# NUMBER OF ROWS: 32768
# NUMBER OF NODES: 32
# INPUT RANGE: 10
# OUTPUT RANGE: 12
# TITLE : Custom LUT
# DESCRIPTION : S-Log3/Sony S-Gamut3.cine (Venice) -> LA - lutCreatorJs_64/LA - lutCreatorJs_64, Stop Shift 0.00, Black Level 13.23% IRE, Data Input -> Legal Output
0 33 66 99 132 165 198 231 264 297 330 363 396 429 462 495 528 561 594 627 660 693 726 759 792 825 858 891 924 957 990 1023
185 304 304
173 320 371
174 336 451
163 352 520
152 365 618
123 367 721
69 387 870
25 382 1000
24 399 1148
24 414 1299
24 437 1445
24 455 1586
24 476 1747
24 502 1875
24 538 2039
24 564 2189
24 617 2370
24 645 2498
24 669 2656
24 659 2779
305 755 2966
682 719 3108
929 785 3247
1185 715 3398
1162 657 3447
1409 1004 3490
1750 757 3742
1392 480 3751
1526 246 3282
1630 352 4036
1306 0 0
3490 461 4046
163 387 321
165 385 385
166 402 453
140 416 538
110 428 633
58 433 753
26 448 898
24 449 1025
24 465 1175
24 472 1316
24 485 1460
24 511 1604
24 538 1752
24 565 1906
24 592 2052
24 614 2205
24 655 2377
24 682 2511
24 707 2657
24 698 2785
271 775 2957
666 750 3104
912 805 3238
1172 745 3388
1172 689 3446
1412 1013 3495
1740 774 3734
1403 505 3751
1536 266 3303
1639 368 4036
1325 0 0
3479 468 4046
157 467 337
125 466 403
142 466 481
117 482 554
82 498 662
26 502 774
24 518 919
24 517 1049
24 529 1193
24 540 1336
24 552 1476
24 569 1619
24 589 1761
24 612 1910
24 637 2061
24 665 2218
24 701 2384
24 716 2523
24 740 2660
24 741 2791
240 795 2947
638 780 3092
895 827 3229
1159 776 3377
1181 720 3444
1414 1021 3499
1730 792 3727
1416 532 3751
1547 286 3324
1648 379 4036
1344 0 0
3469 475 4046
155 567 339
81 567 403
72 580 500
75 582 578
48 592 683
22 597 799
24 611 947
24 609 1076
24 613 1211
24 622 1356
24 629 1495
24 645 1636
24 662 1778
24 676 1925
24 703 2075
24 717 2223
24 744 2391
24 757 2524
24 782 2667
24 791 2798
210 815 2938
607 812 3079
879 851 3219
1146 809 3366
1190 753 3443
1416 1031 3502
1721 812 3720
1430 555 3751
1557 308 3345
1656 389 4036
1361 0 0
3458 482 4046
127 696 340
27 706 398
10 717 500
20 702 602
22 700 701
24 700 824
24 711 963
24 725 1102
24 722 1237
24 718 1381
24 728 1513
24 734 1655
24 751 1797
24 759 1940
24 775 2090
24 782 2232
24 805 2398
24 808 2530
24 819 2670
24 827 2800
181 837 2927
583 846 3067
864 874 3208
1131 844 3356
1199 787 3441
1418 1040 3506
1712 833 3713
1444 574 3751
1568 333 3367
1665 402 4036
1376 0 0
3447 490 4046
54 854 296
0 856 383
23 873 474
24 865 583
24 861 739
24 858 860
24 851 997
24 846 1125
24 843 1262
24 843 1397
24 844 1538
24 846 1674
24 853 1813
24 861 1959
24 872 2108
24 874 2253
24 883 2410
24 883 2542
24 881 2673
24 878 2809
158 872 2932
567 880 3056
848 898 3198
1116 878 3346
1206 824 3439
1419 1050 3509
1704 855 3706
1458 597 3751
1579 359 3393
1673 417 4036
1392 0 0
3435 499 4046
0 1019 270
22 1027 343
24 1026 444
24 1028 556
24 1028 729
24 1033 898
24 1019 1039
24 1002 1155
24 1008 1294
24 1001 1426
24 998 1561
24 997 1698
24 1001 1839
24 1005 1982
24 1014 2131
24 1014 2279
24 1012 2426
24 998 2557
24 979 2686
24 961 2813
132 940 2933
554 926 3057
828 930 3182
1093 923 3332
1216 876 3436
1421 1063 3513
1693 885 3696
1478 639 3751
1594 383 3427
1684 439 4036
1414 0 0
3418 512 4046
16 1193 223
24 1199 304
24 1205 397
24 1199 528
24 1189 695
24 1193 884
24 1197 1059
24 1181 1184
24 1159 1322
24 1150 1449
24 1148 1590
24 1139 1720
24 1141 1861
24 1140 2001
24 1153 2145
24 1152 2296
24 1152 2448
24 1150 2578
24 1139 2703
24 1120 2830
99 1065 2949
539 1017 3061
823 983 3187
1058 980 3312
1227 945 3432
1422 1080 3518
1679 927 3685
1504 694 3751
1615 420 3467
1699 468 4035
1449 0 0
3393 531 4046
24 1338 145
24 1350 251
24 1365 340
24 1363 483
24 1380 658
24 1358 825
24 1383 1050
24 1362 1220
24 1327 1358
24 1299 1487
24 1307 1613
24 1297 1747
24 1296 1891
24 1285 2028
24 1292 2174
24 1300 2322
24 1293 2463
24 1288 2591
24 1283 2718
24 1264 2842
77 1243 2964
537 1207 3079
819 1121 3192
1045 1059 3307
1238 1025 3425
1423 1103 3524
1661 981 3673
1538 765 3752
1643 478 3512
1720 517 4035
1497 0 0
3361 553 4046
24 1492 70
24 1510 173
24 1508 280
24 1524 419
24 1536 623
24 1519 797
24 1548 999
24 1550 1207
24 1516 1375
24 1478 1525
24 1469 1651
24 1463 1774
24 1446 1925
24 1438 2054
24 1438 2203
24 1443 2343
24 1440 2484
24 1439 2610
24 1428 2735
24 1418 2856
102 1404 2976
544 1380 3093
838 1344 3210
1055 1260 3314
1243 1135 3422
1421 1130 3531
1638 1055 3664
1583 878 3753
1678 571 3578
1750 578 4035
1557 0 0
3326 578 4046
24 1678 25
24 1674 95
24 1682 236
24 1702 397
24 1686 552
24 1669 750
24 1716 974
24 1709 1181
24 1693 1378
24 1695 1546
24 1663 1687
24 1633 1805
24 1616 1952
24 1605 2087
24 1604 2229
24 1590 2362
24 1592 2507
24 1580 2623
24 1581 2748
24 1574 2864
96 1570 2994
561 1549 3102
860 1524 3217
1084 1480 3327
1276 1402 3440
1431 1232 3539
1610 1168 3660
1646 1020 3756
1724 720 3652
1793 686 4034
1637 47 0
3281 627 4046
24 1855 24
24 1822 30
24 1855 158
24 1852 374
24 1869 507
24 1836 695
24 1865 958
24 1873 1146
24 1870 1346
24 1885 1506
24 1844 1701
24 1828 1834
24 1789 1985
24 1768 2120
24 1769 2255
24 1757 2389
24 1750 2532
24 1743 2649
24 1734 2765
24 1729 2882
83 1729 3005
575 1717 3115
885 1698 3225
1122 1679 3338
1318 1634 3450
1481 1552 3554
1610 1359 3660
1720 1217 3761
1792 954 3728
1855 839 4033
1725 188 0
3212 700 4046
24 1964 24
24 2057 23
24 1999 102
24 1983 274
24 2076 520
24 2034 726
24 2073 920
24 1980 1074
24 2010 1279
24 2059 1556
24 2034 1699
24 2017 1896
24 1988 2049
24 1960 2157
24 1966 2305
24 1918 2396
24 1913 2551
24 1900 2666
24 1890 2780
24 1889 2895
45 1883 3008
593 1879 3126
922 1870 3236
1155 1859 3343
1364 1842 3456
1528 1796 3559
1680 1713 3670
1791 1507 3771
1894 1258 3828
1940 1060 4032
1848 382 0
3114 803 4046
24 2149 24
24 2203 24
24 2253 43
24 2184 200
24 2172 494
24 2226 699
24 2208 906
24 2172 985
24 2170 1236
24 2205 1452
24 2223 1705
24 2164 1872
24 2152 2016
24 2191 2193
24 2171 2318
24 2085 2395
24 2078 2553
24 2065 2687
24 2049 2796
24 2046 2913
24 2045 3028
581 2036 3133
948 2034 3245
1197 2033 3350
1398 2022 3458
1579 2000 3562
1742 1972 3675
1888 1891 3777
1995 1674 3867
2049 1363 3997
2002 713 0
2987 972 4046
24 2219 24
24 2371 24
24 2300 24
24 2356 211
24 2457 593
24 2355 636
24 2368 899
24 2338 907
24 2344 1209
24 2484 1405
24 2372 1639
24 2377 1890
24 2443 2055
24 2406 2256
24 2385 2408
24 2249 2428
24 2227 2601
24 2250 2722
24 2217 2819
24 2203 2925
24 2200 3037
542 2193 3143
960 2199 3253
1231 2198 3359
1451 2201 3468
1634 2187 3571
1808 2174 3677
1957 2139 3775
2096 2058 3864
2183 1835 3951
2183 1317 1756
2810 1216 4046
24 2407 24
24 2519 24
24 2532 24
24 2514 169
24 2542 612
24 2507 590
24 2646 945
24 2433 1005
24 2450 1192
24 2564 1447
24 2608 1716
24 2513 1800
24 2578 2104
24 2614 2207
24 2600 2451
24 2320 2344
24 2374 2617
24 2440 2793
24 2384 2831
24 2362 2941
24 2358 3050
382 2351 3158
939 2352 3262
1245 2354 3361
1480 2355 3473
1677 2353 3577
1856 2350 3678
2019 2332 3777
2165 2301 3867
2294 2221 3949
2361 2009 4032
2584 1577 4046
24 2639 24
24 2622 24
24 2505 24
24 2614 209
24 2827 536
24 2775 701
24 2581 770
24 2647 1083
24 2623 1122
24 2706 1264
24 2707 1590
24 2660 1696
24 2831 2019
24 2831 2162
24 2714 2254
24 2698 2526
24 2637 2547
24 2517 2748
24 2557 2822
24 2518 2953
24 2529 3069
58 2521 3171
868 2519 3278
1236 2516 3377
1492 2509 3480
1709 2514 3582
1897 2506 3680
2056 2498 3768
2227 2485 3864
2359 2454 3938
2473 2381 4013
2541 2180 4045
24 2820 24
24 2820 24
24 2798 5
24 3051 383
24 3079 505
24 2793 802
24 2720 971
24 2836 995
24 2824 1312
24 2813 1138
24 2728 1542
24 2693 1742
24 2881 2312
24 2964 2250
24 2743 2326
24 2907 2557
24 2789 2623
24 2638 2732
24 2749 2816
24 2666 2953
24 2724 3093
24 2676 3183
652 2666 3287
1171 2661 3383
1477 2661 3488
1718 2655 3585
1927 2664 3688
2113 2669 3782
2278 2656 3855
2429 2647 3931
2541 2603 3997
2646 2544 4039
24 2641 24
24 3082 24
24 2705 0
24 3170 895
24 2944 836
24 2690 995
24 3082 962
24 2987 1025
24 2919 1372
24 2945 1387
24 2901 1577
24 2801 1606
24 3089 2243
24 2982 2230
24 2819 2184
24 3023 2556
24 2947 2462
24 2608 2665
24 2794 2787
24 2785 2843
24 2991 3160
22 2841 3267
110 2816 3300
1008 2801 3398
1425 2802 3502
1706 2795 3592
1941 2798 3695
2147 2803 3784
2328 2810 3857
2491 2808 3925
2618 2802 3996
2733 2774 4036
24 2402 24
24 2654 0
24 2761 191
24 3338 875
24 3060 678
24 2898 742
24 3098 1250
24 3098 1003
24 3055 1036
24 3038 1401
24 3008 1541
24 2788 1745
24 3237 2306
24 3360 2380
24 2628 2068
24 3092 2511
24 3136 2360
24 3105 2517
24 3020 2922
24 2838 2904
24 3031 3186
0 2998 3301
0 2924 3246
573 2942 3411
1292 2934 3510
1667 2929 3603
1937 2927 3698
2158 2933 3785
2355 2935 3864
2544 2956 3923
2692 2962 3982
2803 2945 4033
24 3069 0
24 3439 0
24 2330 0
24 2992 809
24 2957 569
24 2823 755
24 3175 1292
24 2823 987
24 3008 1223
24 3127 1014
24 2811 1258
24 2858 1317
24 2892 1594
24 2921 1654
24 3163 1794
24 3273 2635
24 3263 2456
24 3215 2676
24 3316 2714
24 2983 2764
0 2998 2810
0 3016 3148
0 3018 3264
419 3132 3433
895 3071 3520
1551 3063 3617
1903 3058 3709
2153 3052 3794
2366 3059 3864
2563 3066 3919
2749 3090 3982
2880 3100 4031
24 3318 0
24 2865 183
24 3189 1062
24 2767 625
24 2700 657
24 2780 457
24 3856 1352
24 3564 832
24 3628 1596
24 3007 1655
24 3404 1331
24 3062 1599
24 3248 1845
24 3206 1874
24 3593 2163
24 3531 2797
24 2929 2300
24 3380 2582
24 3399 2436
24 3038 3064
0 3192 3144
0 3059 3198
0 3357 3211
381 3235 3443
678 3127 3471
1161 3189 3624
1798 3184 3721
2123 3177 3798
2369 3180 3868
2583 3186 3925
2766 3197 3976
2938 3231 4032
24 3383 0
24 3877 1094
24 1811 575
24 3495 624
24 3619 738
24 3878 1120
24 3188 859
24 3895 1108
24 3897 1256
24 2804 1756
24 3439 899
24 2790 1041
24 3481 1985
24 2609 2099
24 3745 2091
24 3626 2860
24 2737 2687
24 3437 2523
24 3065 2247
0 3190 2885
0 3669 2722
0 3403 2897
0 3113 3100
498 3678 3742
389 3100 3576
759 3155 3608
1438 3302 3725
2039 3297 3811
2341 3285 3872
2579 3291 3930
2781 3295 3980
2955 3322 4032
0 3651 573
0 2479 361
0 3978 1076
0 3680 818
0 3918 1885
0 3900 1765
24 4026 1407
24 3907 1398
24 2431 973
24 3472 1540
24 3918 1130
24 3611 784
24 3495 2231
24 3573 2283
24 3418 1764
24 3847 2498
24 3765 2535
24 3630 2465
0 3162 2907
0 3649 2731
0 3628 2960
0 2988 2221
0 3710 3271
107 3088 3765
305 3201 3378
638 3582 3398
983 3357 3885
1712 3407 3816
2270 3399 3884
2550 3392 3933
2777 3396 3982
2951 3408 4023
0 3684 1789
0 3454 2271
0 2720 1525
0 3324 2652
0 4037 3104
0 4032 2239
0 3835 1335
0 3286 1409
0 3664 1606
0 4040 1375
0 3062 794
0 3020 1297
0 3675 1237
0 4034 1324
0 3839 1779
0 3680 2585
0 4032 2526
0 3685 2702
0 4032 3564
0 3896 2425
0 3400 2383
0 3500 3095
0 3834 3724
0 3571 3015
75 4033 3839
610 3462 3654
609 3534 3616
1312 3365 3815
1972 3505 3895
2488 3501 3946
2758 3490 3984
2959 3497 4032
0 3786 1372
0 3913 1593
0 4034 2993
0 4045 1890
0 4040 491
0 4032 0
0 3259 456
0 3274 1394
0 4032 1727
0 3822 802
0 2863 1256
0 3271 2427
0 3774 2089
0 4041 3279
0 2953 985
0 4040 3682
0 3517 2673
0 2619 2103
0 3743 3832
0 2893 1996
0 885 2044
0 3963 3470
0 4032 3885
0 2671 4031
259 3536 3955
248 2560 3659
988 3604 3808
441 3695 3782
1485 3586 3423
2214 3598 3951
2688 3591 3990
2936 3588 4031
0 4078 1061
0 4042 1113
0 3907 1348
0 3883 1535
0 3881 1697
0 3883 1726
0 3883 1764
0 3881 1805
0 1765 2265
0 0 2310
0 0 450
0 2433 2255
0 3870 2158
0 4061 3117
0 1852 2356
0 3774 3715
0 438 1619
0 2041 516
0 4060 993
0 249 1002
0 0 1633
0 778 3591
138 4041 4032
107 3079 4036
0 3838 3309
105 3809 2770
1322 3688 3888
280 3647 3637
598 3731 3902
1526 3732 3973
2434 3689 3998
2865 3682 4031
0 3967 1710
0 3966 560
0 3966 0
0 4037 0
0 4049 388
0 4043 714
0 0 243
0 0 4
0 0 209
0 0 1792
0 0 2098
0 2077 4017
0 4075 3987
0 4095 4032
0 2063 2060
0 4075 4032
0 2676 1760
0 4032 3278
0 4048 1875
0 3153 1164
0 2253 70
0 4041 3939
0 4078 4032
0 3247 4050
446 4057 3543
0 3917 3989
0 4090 3903
2 2958 3300
1002 3520 0
673 1489 4032
1465 3833 3984
2630 3776 4032
0 0 446
0 0 2138
0 0 3560
0 0 3974
